src/icons/svg/menuIcon.svg

<?xml version="1.0" standalone="no"?><!DOCTYPE svg PUBLIC "-//W3C//DTD SVG 1.1//EN" "http://www.w3.org/Graphics/SVG/1.1/DTD/svg11.dtd"><svg t="1543545639949" class="icon" style="" viewBox="0 0 1024 1024" version="1.1" xmlns="http://www.w3.org/2000/svg" p-id="3677" xmlns:xlink="http://www.w3.org/1999/xlink" width="200" height="200"><defs><style type="text/css"></style></defs><path d="M1010.01934 316.081916l-242.301991 242.301991a41.278022 41.278022 0 0 1-61.091473 0l-241.476431-242.301991a41.278022 41.278022 0 0 1 0-60.678693L707.451436 13.514012a41.278022 41.278022 0 0 1 61.091473 0l241.476431 242.714771a41.278022 41.278022 0 0 1 0 59.853133z" fill="#2c2c2c" p-id="3678"></path><path d="M386.308422 1022.761659H42.049715a41.278022 41.278022 0 0 1-41.278022-41.278022v-344.258707a41.278022 41.278022 0 0 1 41.278022-41.278022h342.607586a41.278022 41.278022 0 0 1 41.278022 41.278022v343.020366a41.278022 41.278022 0 0 1-41.278022 41.278023zM386.308422 508.850281H42.049715a41.278022 41.278022 0 0 1-41.278022-41.278023V124.139112a41.278022 41.278022 0 0 1 41.278022-41.278023h342.607586a41.278022 41.278022 0 0 1 41.278022 41.278023v342.607586a41.278022 41.278022 0 0 1-41.278022 41.278022zM557.612215 594.708567h342.607586a41.278022 41.278022 0 0 1 41.278022 41.278022v343.020367a41.278022 41.278022 0 0 1-41.278022 41.278022h-342.607586a41.278022 41.278022 0 0 1-41.278023-41.278022v-341.782026a41.278022 41.278022 0 0 1 41.278023-41.278022z" p-id="3679"></path></svg>

<svg class="icon" viewBox="0 0 1024 1024" xmlns="http://www.w3.org/2000/svg" width="200" height="200"><defs><style/></defs><path d="M1010.02 316.082L767.716 558.384a41.278 41.278 0 0 1-61.091 0L465.149 316.082a41.278 41.278 0 0 1 0-60.679L707.451 13.514a41.278 41.278 0 0 1 61.092 0l241.476 242.715a41.278 41.278 0 0 1 0 59.853z"/><path d="M386.308 1022.762H42.05A41.278 41.278 0 0 1 .772 981.484v-344.26a41.278 41.278 0 0 1 41.278-41.277h342.607a41.278 41.278 0 0 1 41.278 41.278v343.02a41.278 41.278 0 0 1-41.278 41.278zm0-513.912H42.05A41.278 41.278 0 0 1 .772 467.572V124.14A41.278 41.278 0 0 1 42.05 82.861h342.607a41.278 41.278 0 0 1 41.278 41.278v342.608a41.278 41.278 0 0 1-41.278 41.278zm171.304 85.859H900.22a41.278 41.278 0 0 1 41.278 41.278v343.02a41.278 41.278 0 0 1-41.278 41.278H557.612a41.278 41.278 0 0 1-41.278-41.278V637.225a41.278 41.278 0 0 1 41.278-41.278z"/></svg>
